X: 1
T: Tucking in                                    
R: reel
M: 4/4
L: 1/8
K: Ddor
C: Sean Wahl
^c|: dAFA DAF^c | dAFB =cGE^c | dAFA DAFB | =cBcG ECC^c :|
| Ad^cd AFED | Ad^cd AB=cG | Ad^cd AFED | _B,A,B,C DCDE | 
| Ad^cd AFED | Ad^cd AB=c^c | Ad^cd AFED | _B,A,B,D ECC^c|
|: dagf eAB^c | dagf e=cG^c | dagf e=cGE | DEFG ABc^c :|
|: dafa fed^c | dafa AB=c^c | dafa daf=c |1 _BABc dcde :|2 _BABd ecc^c|

